apps/scalable/maxima-icon.svg

<?xml version="1.0" standalone="no"?><!-- Generator: Gravit.io --><svg xmlns="http://www.w3.org/2000/svg" xmlns:xlink="http://www.w3.org/1999/xlink" style="isolation:isolate" viewBox="0 0 256 256" width="256" height="256"><defs><filter id="cpCDmEZ85MusZ378V7UMz3M0C5Rl1hlE" x="-200%" y="-200%" width="400%" height="400%" filterUnits="objectBoundingBox" color-interpolation-filters="sRGB"><feGaussianBlur xmlns="http://www.w3.org/2000/svg" in="SourceGraphic" stdDeviation="4.294"/><feOffset xmlns="http://www.w3.org/2000/svg" dx="0" dy="4" result="pf_100_offsetBlur"/><feFlood xmlns="http://www.w3.org/2000/svg" flood-color="#000000" flood-opacity="0.4"/><feComposite xmlns="http://www.w3.org/2000/svg" in2="pf_100_offsetBlur" operator="in" result="pf_100_dropShadow"/><feBlend xmlns="http://www.w3.org/2000/svg" in="SourceGraphic" in2="pf_100_dropShadow" mode="normal"/></filter></defs><g filter="url(#cpCDmEZ85MusZ378V7UMz3M0C5Rl1hlE)"><path d=" M 166.351 13.28 C 240.407 13.28 250.991 23.837 250.991 97.824 L 250.991 157.075 C 250.991 231.061 240.407 241.619 166.351 241.619 L 90.982 241.619 C 16.926 241.619 6.343 231.061 6.343 157.075 L 6.343 97.824 C 6.343 23.837 16.926 13.28 90.982 13.28 L 166.351 13.28 L 166.351 13.28 Z " id="Path" fill="rgb(217,217,217)"/></g><g opacity="0.1"><path d=" M 5.676 126.116 L 5.676 155.742 C 5.676 229.728 16.26 240.285 90.315 240.285 L 165.685 240.285 C 239.74 240.285 250.324 229.728 250.324 155.742 L 250.324 126.116 L 5.676 126.116 L 5.676 126.116 Z " id="Path" fill="rgb(255,255,255)"/></g><g opacity="0.2"><path d=" M 128 11.947 L 128 240.285 L 165.685 240.285 C 239.74 240.285 250.324 229.728 250.324 155.742 L 250.324 96.491 C 250.324 22.504 239.74 11.947 165.685 11.947 L 128 11.947 L 128 11.947 Z " id="Path" fill="rgb(255,255,255)"/></g><g id="Group" filter="url(#FO5Qey5zGazS2qYOXFhcOitrwjHOE1EZ)"><path d=" M 200.5 143.324 L 197.367 172.588 L 122.209 172.588 L 122.209 170.266 L 160.187 128.264 L 123.277 81.168 L 123.277 78.867 L 194.439 78.867 L 194.439 103.758 L 189.717 103.758 C 188.742 99.362 186.858 95.213 184.088 91.314 C 181.318 87.412 178.459 85.227 175.485 84.753 C 174.147 84.527 172.261 84.347 169.809 84.256 C 167.337 84.143 165.339 84.076 163.771 84.076 L 143.228 84.076 L 172.828 121.861 L 172.828 122.921 L 138.235 160.954 L 181.66 160.954 C 183.658 160.954 185.428 160.368 186.993 159.173 C 188.538 158.002 189.877 156.468 190.989 154.62 C 192.01 152.952 192.918 151.081 193.713 149.05 C 194.449427 147.153451 195.153529 145.244508 195.825 143.324 L 200.5 143.324 L 200.5 143.324 Z  M 111.522 67.106 L 111.522 74.887 L 102.591 74.887 C 99.326 74.887 96.247 75.193 93.357 75.781 C 90.467 76.393 87.648 77.498 84.898 79.096 C 82.36 80.625 80.292 82.693 78.693 85.326 C 77.096 87.983 76.273 91.182 76.273 94.943 C 76.273 100.397 78.247 104.56 82.172 107.403 C 86.095 110.248 91.289 111.683 97.775 111.683 L 107.739 111.683 L 107.739 118.901 L 94.25 118.901 C 86.776 118.901 81.067 120.476 77.142 123.625 C 73.217 126.776 71.267 131.715 71.267 138.463 C 71.267 143.987 72.866 148.265 76.085 151.322 C 79.28 154.379 83.769 155.907 89.504 155.907 L 98.597 155.907 C 104.284 155.907 108.585 157.458 111.522 160.585 C 114.46 163.712 115.941 167.873 115.941 173.117 C 115.941 178.759 113.521 183.908 108.679 188.54 C 103.838 193.195 98.057 195.5 91.361 195.5 C 86.543 195.5 83.111 194.912 81.113 193.759 C 79.093 192.585 78.084 190.868 78.084 188.61 C 78.084 186.777 78.647 185.319 79.75 184.214 C 80.879 183.11 82.548 182.544 84.756 182.544 C 86.049 182.544 87.2 182.804 88.235 183.32 C 89.201481 183.781512 90.108712 184.358016 90.937 185.037 C 91.688 185.577 92.558 186.307 93.593 187.177 C 94.626 188.046 95.613 188.704 96.53 189.174 C 97.634 189.08 98.833 188.822 100.15 188.376 C 101.44 187.928 102.687 187.201 103.884 186.141 C 105.131 185.083 106.117 183.862 106.846 182.45 C 107.597 181.063 107.951 179.159 107.951 176.76 C 107.951 173.423 106.892 170.93 104.754 169.333 C 102.616 167.733 99.562 166.909 95.565 166.909 L 84.826 166.909 C 76.93 166.909 70.446 164.512 65.416 159.692 C 60.364 154.873 57.826 148.901 57.826 141.777 C 57.826 137.921 58.601 134.394 60.128 131.197 C 61.679 128.022 63.747 125.225 66.379 122.828 C 68.847 120.592 71.691 118.807 74.862 117.465 C 78.06 116.126 81.137 115.28 84.075 114.904 L 84.075 114.504 C 77.096 113.353 71.785 111.048 68.166 107.615 C 64.523 104.16 62.714 100.045 62.714 95.225 C 62.714 92.498 63.254 90.028 64.335 87.819 C 65.416 85.586 66.921 83.586 68.847 81.847 C 70.634 80.248 72.748 78.862 75.192 77.708 C 77.665821 76.56347 80.218333 75.597339 82.83 74.817 L 82.83 73.666 C 80.997 73.712 78.599 73.784 75.662 73.924 C 72.724 74.066 70.21 74.136 68.096 74.136 C 63.771 74.136 60.6 73.524 58.556 72.302 C 56.509 71.103 55.5 69.363 55.5 67.106 C 55.5 65.318 55.97 63.767 56.909 62.473 C 57.85 61.158 59.447 60.5 61.679 60.5 C 63.795 60.5 65.604 60.922 67.085 61.746 C 68.540717 62.53878 69.938239 63.434036 71.267 64.425 C 72.534333 65.382093 73.81956 66.315258 75.122 67.224 C 76.227 67.976 77.894 68.351 80.15 68.351 C 85.086 68.351 90.444 68.211 96.225 67.93 C 101.982 67.67 107.082 67.388 111.522 67.106 L 111.522 67.106 Z " fill-rule="evenodd" id="Compound Path" class="fil0" fill="rgb(20,99,165)"/><path d=" M 176.676 163.425 L 142.685 163.425 L 142.685 159.603 C 143.925 159.567 145.496 159.437 147.421 159.217 C 149.364 159.015 150.697 158.702 151.418 158.316 C 152.529 157.637 153.361 156.846 153.879 155.964 C 154.396 155.081 154.675 153.98 154.675 152.656 L 154.675 97.101 L 153.86 97.101 L 127.623 162.194 L 124.902 162.194 L 99.922 95.739 L 99.219 95.739 L 99.219 141.354 C 99.219 145.764 99.496 149.127 100.051 151.424 C 100.607 153.722 101.477 155.375 102.624 156.368 C 103.419 157.122 105.066 157.838 107.565 158.518 C 110.043 159.217 111.672 159.567 112.43 159.603 L 112.43 163.425 L 81.381 163.425 L 81.381 159.603 C 83.099734 159.447505 84.806186 159.177573 86.489 158.795 C 88.283 158.409 89.671 157.802 90.651 157.011 C 91.91 156.019 92.78 154.475 93.243 152.381 C 93.724 150.304 93.946 146.83 93.946 141.941 L 93.946 102.852 C 93.946 100.592 93.686 98.735 93.131 97.302 C 92.594 95.869 91.817 94.711 90.8 93.811 C 89.689 92.836 88.321 92.12 86.692 91.66 C 85.120663 91.197382 83.499315 90.925758 81.863 90.851 L 81.863 87.028 L 108.101 87.028 L 130.101 144.312 L 148.921 96.402 C 149.622249 94.596724 150.209078 92.749065 150.678 90.87 C 151.177 88.958 151.437 87.672 151.473 87.028 L 176.565 87.028 L 176.565 90.851 C 175.546 90.888 174.27 91.054 172.697 91.329 C 171.125 91.623 169.978 91.881 169.255 92.139 C 168.016 92.579 167.183 93.295 166.758 94.287 C 166.313 95.299 166.11 96.402 166.11 97.577 L 166.11 152.656 C 166.11 153.906 166.313 154.972 166.758 155.835 C 167.183 156.699 168.016 157.452 169.255 158.096 C 169.904 158.445 171.051 158.795 172.716 159.088 C 174.38 159.401 175.694 159.567 176.676 159.603 L 176.676 163.425 L 176.676 163.425 Z " fill-rule="evenodd" id="Path" class="fil0" fill="rgb(188,25,56)"/></g><defs><filter id="FO5Qey5zGazS2qYOXFhcOitrwjHOE1EZ" x="-200%" y="-200%" width="400%" height="400%" filterUnits="objectBoundingBox" color-interpolation-filters="sRGB"><feGaussianBlur xmlns="http://www.w3.org/2000/svg" in="SourceGraphic" stdDeviation="4.294"/><feOffset xmlns="http://www.w3.org/2000/svg" dx="0" dy="4" result="pf_100_offsetBlur"/><feFlood xmlns="http://www.w3.org/2000/svg" flood-color="#000000" flood-opacity="0.4"/><feComposite xmlns="http://www.w3.org/2000/svg" in2="pf_100_offsetBlur" operator="in" result="pf_100_dropShadow"/><feBlend xmlns="http://www.w3.org/2000/svg" in="SourceGraphic" in2="pf_100_dropShadow" mode="normal"/></filter></defs><g opacity="0.4"><linearGradient id="_lgradient_62" x1="0.5166666666666668" y1="0" x2="0.5166666666666666" y2="1.0000000000000002" gradientTransform="matrix(244.65,0,0,228.34,5.68,11.95)" gradientUnits="userSpaceOnUse"><stop offset="0%" stop-opacity="1" style="stop-color:rgb(255,255,255)"/><stop offset="12.5%" stop-opacity="0.09803922" style="stop-color:rgb(255,255,255)"/><stop offset="92.500001%" stop-opacity="0.09803922" style="stop-color:rgb(0,0,0)"/><stop offset="100%" stop-opacity="0.49803922" style="stop-color:rgb(0,0,0)"/></linearGradient><path d=" M 165.06803 11.951234 C 169.395994 11.941409 173.723944 11.990533 178.051908 12.088781 C 181.927398 12.167379 185.802873 12.31475 189.678362 12.540721 C 193.1309 12.737216 196.583423 13.022134 200.026115 13.395476 C 203.085193 13.729518 206.144271 14.181458 209.173842 14.741469 C 211.888645 15.242533 214.57394 15.881143 217.219897 16.6573 C 219.619947 17.354858 221.970814 18.219439 224.242988 19.241215 C 226.357793 20.184394 228.384061 21.304417 230.302129 22.591462 C 232.141505 23.829383 233.862851 25.244151 235.436659 26.80629 C 237.000621 28.378252 238.417046 30.087764 239.656409 31.924995 C 240.944972 33.840824 242.066305 35.864728 243.020409 37.967229 C 244.043389 40.246576 244.908985 42.584873 245.617197 44.972292 C 246.394255 47.615155 247.033606 50.297317 247.535265 53.008956 C 248.095924 56.034984 248.548399 59.080665 248.882828 62.13617 C 249.256611 65.574836 249.541856 69.013506 249.738578 72.462003 C 249.964823 76.323139 250.112361 80.194101 250.200884 84.055237 C 250.289421 88.378131 250.338591 92.701032 250.32876 97.014106 L 250.32876 155.225886 C 250.338591 159.54878 250.289421 163.861854 250.200884 168.184747 C 250.112361 172.05571 249.964823 175.916853 249.738578 179.777981 C 249.541856 183.226485 249.256611 186.674975 248.882828 190.103826 C 248.548399 193.15933 248.095924 196.214835 247.535265 199.240851 C 247.033606 201.942664 246.394255 204.624837 245.617197 207.267703 C 244.908985 209.655115 244.043389 212.003235 243.020409 214.272755 C 242.066305 216.38509 240.944972 218.399156 239.656409 220.314999 C 238.417046 222.152226 237.000621 223.871561 235.436659 225.433697 C 233.862851 226.995832 232.141505 228.410601 230.302129 229.648532 C 228.384061 230.935575 226.357793 232.055598 224.242988 232.998768 C 221.970814 234.020552 219.619947 234.885137 217.219897 235.592507 C 214.57394 236.368672 211.888645 237.007276 209.173842 237.498515 C 206.144271 238.068354 203.085193 238.510465 200.026115 238.844519 C 196.583423 239.21785 193.1309 239.502777 189.678362 239.699269 C 185.802873 239.925235 181.927398 240.072615 178.051908 240.161035 C 173.723944 240.249454 169.395994 240.298581 165.06803 240.288762 L 90.941963 240.288762 C 86.614006 240.298581 82.286049 240.249454 77.9581 240.161035 C 74.08261 240.072615 70.20712 239.925235 66.331638 239.699269 C 62.879108 239.502777 59.426578 239.21785 55.983886 238.844519 C 52.924808 238.510465 49.865733 238.068354 46.836162 237.498515 C 44.121356 237.007276 41.436057 236.368672 38.7901 235.592507 C 36.390053 234.885137 34.039187 234.020552 31.767009 232.998768 C 29.652213 232.055598 27.625943 230.935575 25.707871 229.648532 C 23.868489 228.410601 22.147143 226.995832 20.573343 225.433697 C 19.009377 223.871561 17.592955 222.152226 16.353586 220.314999 C 15.065036 218.399156 13.943701 216.38509 12.989584 214.272755 C 11.966612 212.003235 11.101021 209.655115 10.392811 207.267703 C 9.615746 204.624837 8.976389 201.942664 8.47474 199.240851 C 7.914072 196.214835 7.461604 193.15933 7.127172 190.103826 C 6.753394 186.674975 6.468142 183.226485 6.271417 179.777981 C 6.045183 175.916853 5.897639 172.05571 5.809112 168.184747 C 5.720586 163.861854 5.671405 159.54878 5.681241 155.225886 L 5.681241 97.014106 C 5.671405 92.701032 5.720586 88.378131 5.809112 84.055237 C 5.897639 80.194101 6.045183 76.323139 6.271417 72.462003 C 6.468142 69.013506 6.753394 65.574836 7.127172 62.13617 C 7.461604 59.080665 7.914072 56.034984 8.47474 53.008956 C 8.976389 50.297317 9.615746 47.615155 10.392811 44.972292 C 11.101021 42.584873 11.966612 40.246576 12.989584 37.967229 C 13.943701 35.864728 15.065036 33.840824 16.353586 31.924995 C 17.592955 30.087764 19.009377 28.378252 20.573343 26.80629 C 22.147143 25.244151 23.868489 23.829383 25.707871 22.591462 C 27.625943 21.304417 29.652213 20.184394 31.767009 19.241215 C 34.039187 18.219439 36.390053 17.354858 38.7901 16.6573 C 41.436057 15.881143 44.121356 15.242533 46.836162 14.741469 C 49.865733 14.181458 52.924808 13.729518 55.983886 13.395476 C 59.426578 13.022134 62.879108 12.737216 66.331638 12.540721 C 70.20712 12.31475 74.08261 12.167379 77.9581 12.088781 C 82.286049 11.990533 86.614006 11.941409 90.941963 11.951234 L 165.06803 11.951234 Z  M 165.077876 15.959741 C 169.376317 15.949916 173.674759 15.99904 177.973216 16.087463 C 181.799522 16.175886 185.625827 16.323257 189.452133 16.539402 C 192.835809 16.735898 196.219486 17.010992 199.583486 17.384332 C 202.554026 17.698726 205.514751 18.131016 208.445953 18.681203 C 211.023049 19.152792 213.580483 19.761928 216.098564 20.498786 C 218.321569 21.147221 220.495374 21.952852 222.600334 22.896029 C 224.508571 23.750785 226.338116 24.762737 228.069293 25.922059 C 229.692286 27.012609 231.207063 28.260355 232.59398 29.645648 C 233.980897 31.030941 235.230091 32.543956 236.331763 34.165043 C 237.492434 35.894202 238.505568 37.711787 239.361333 39.607968 C 240.305606 41.720292 241.112187 43.891565 241.761369 46.102139 C 242.508934 48.617282 243.108947 51.161898 243.590914 53.735987 C 244.131912 56.663768 244.564709 59.6112 244.889308 62.578282 C 245.263091 65.938355 245.538505 69.308252 245.735227 72.687976 C 245.951626 76.509812 246.10901 80.321821 246.187687 84.143656 C 246.276225 88.437084 246.325394 92.720685 246.325394 97.014106 C 246.325394 97.014106 246.325394 97.014106 246.325394 97.014106 L 246.325394 155.225886 C 246.325394 155.225886 246.325394 155.225886 246.325394 155.225886 C 246.325394 159.519306 246.276225 163.802907 246.187687 168.096328 C 246.10901 171.918164 245.951626 175.739999 245.735227 179.552015 C 245.538505 182.931739 245.263091 186.301629 244.889308 189.671533 C 244.564709 192.628784 244.131912 195.576216 243.590914 198.503994 C 243.108947 201.078094 242.508934 203.622706 241.761369 206.137845 C 241.112187 208.358253 240.305606 210.5197 239.361333 212.63202 C 238.505568 214.528209 237.492434 216.355617 236.331763 218.074952 C 235.230091 219.705853 233.980897 221.218876 232.59398 222.604172 C 231.207063 223.979634 229.692286 225.227385 228.069293 226.317935 C 226.338116 227.477251 224.508571 228.489201 222.600334 229.343951 C 220.495374 230.296956 218.321569 231.092775 216.098564 231.741198 C 213.580483 232.478056 211.023049 233.087202 208.445953 233.558787 C 205.514751 234.108972 202.554026 234.541264 199.583486 234.865483 C 196.219486 235.228995 192.835809 235.513922 189.452133 235.70058 C 185.625827 235.916726 181.799522 236.073926 177.973216 236.152526 C 173.674759 236.25078 169.376317 236.290072 165.077876 236.290072 C 165.077876 236.290072 165.077876 236.290072 165.06803 236.290072 L 90.941963 236.290072 C 90.932125 236.290072 90.932125 236.290072 90.932125 236.290072 C 86.633683 236.290072 82.335234 236.25078 78.036784 236.152526 C 74.210479 236.073926 70.384173 235.916726 66.557868 235.70058 C 63.174195 235.513922 59.790522 235.228995 56.426518 234.865483 C 53.455967 234.541264 50.495253 234.108972 47.564048 233.558787 C 44.986944 233.087202 42.429517 232.478056 39.911433 231.741198 C 37.688439 231.092775 35.514626 230.296956 33.409665 229.343951 C 31.501429 228.489201 29.671886 227.477251 27.940703 226.317935 C 26.31772 225.227385 24.802935 223.979634 23.416022 222.604172 C 22.029109 221.218876 20.779904 219.705853 19.678243 218.074952 C 18.517564 216.355617 17.504428 214.528209 16.648674 212.63202 C 15.704392 210.5197 14.897819 208.358253 14.248626 206.137845 C 13.50107 203.622706 12.901057 201.078094 12.419081 198.503994 C 11.878086 195.576216 11.445291 192.628784 11.120694 189.671533 C 10.746916 186.301629 10.471501 182.931739 10.274776 179.552015 C 10.058378 175.739999 9.900997 171.918164 9.822307 168.096328 C 9.733781 163.802907 9.6846 159.519306 9.6846 155.225886 C 9.6846 155.225886 9.6846 155.225886 9.6846 155.225886 L 9.6846 97.014106 C 9.6846 97.014106 9.6846 97.014106 9.6846 97.014106 C 9.6846 92.720685 9.733781 88.437084 9.822307 84.143656 C 9.900997 80.321821 10.058378 76.509812 10.274776 72.687976 C 10.471501 69.308252 10.746916 65.938355 11.120694 62.578282 C 11.445291 59.6112 11.878086 56.663768 12.419081 53.735987 C 12.901057 51.161898 13.50107 48.617282 14.248626 46.102139 C 14.897819 43.891565 15.704392 41.720292 16.648674 39.607968 C 17.504428 37.711787 18.517564 35.894202 19.678243 34.165043 C 20.779904 32.543956 22.029109 31.030941 23.416022 29.645648 C 24.802935 28.260355 26.31772 27.012609 27.940703 25.922059 C 29.671886 24.762737 31.501429 23.750785 33.409665 22.896029 C 35.514626 21.952852 37.688439 21.147221 39.911433 20.498786 C 42.429517 19.761928 44.986944 19.152792 47.564048 18.681203 C 50.495253 18.131016 53.455967 17.698726 56.426518 17.384332 C 59.790522 17.010992 63.174195 16.735898 66.557868 16.539402 C 70.384173 16.323257 74.210479 16.175886 78.036784 16.087463 C 82.335234 15.99904 86.633683 15.949916 90.932125 15.959741 C 90.932125 15.959741 90.932125 15.959741 90.941963 15.959741 L 165.06803 15.959741 C 165.077876 15.959741 165.077876 15.959741 165.077876 15.959741 Z " fill-rule="evenodd" id="highlight" fill="url(#_lgradient_62)"/></g></svg>

<svg xmlns="http://www.w3.org/2000/svg" style="isolation:isolate" width="256" height="256"><defs><filter id="a" width="270.648" height="254.338" x="-6.66" y="4.28" filterUnits="userSpaceOnUse"><feGaussianBlur xmlns="http://www.w3.org/2000/svg" in="SourceGraphic" stdDeviation="4.294"/><feOffset xmlns="http://www.w3.org/2000/svg" dy="4" result="pf_100_offsetBlur"/><feFlood xmlns="http://www.w3.org/2000/svg" flood-opacity=".4"/><feComposite xmlns="http://www.w3.org/2000/svg" in2="pf_100_offsetBlur" operator="in" result="pf_100_dropShadow"/><feBlend xmlns="http://www.w3.org/2000/svg" in="SourceGraphic" in2="pf_100_dropShadow"/></filter></defs><path fill="#D9D9D9" d="M166.351 13.28c74.056 0 84.64 10.557 84.64 84.544v59.251c0 73.986-10.584 84.544-84.64 84.544H90.982c-74.056 0-84.639-10.558-84.639-84.544V97.824c0-73.987 10.583-84.544 84.639-84.544h75.369z" filter="url(#a)"/><path fill="#FFF" d="M5.676 126.116v29.626c0 73.986 10.584 84.543 84.639 84.543h75.37c74.055 0 84.639-10.557 84.639-84.543v-29.626H5.676z" opacity=".1"/><path fill="#FFF" d="M128 11.947v228.338h37.685c74.055 0 84.639-10.557 84.639-84.543V96.491c0-73.987-10.584-84.544-84.639-84.544H128z" opacity=".2"/><g opacity=".4"><linearGradient id="b" x1=".517" x2=".517" y2="1"><stop offset="0%" stop-color="#fff"/><stop offset="12.5%" stop-opacity=".098" stop-color="#fff"/><stop offset="92.5%" stop-opacity=".098"/><stop offset="100%" stop-opacity=".498"/></linearGradient><path fill="none" stroke="url(#b)" stroke-linecap="round" stroke-linejoin="round" stroke-width="4.077" d="M165.685 11.947c74.055 0 84.639 10.557 84.639 84.544v59.251c0 73.986-10.584 84.543-84.639 84.543h-75.37c-74.055 0-84.639-10.557-84.639-84.543V96.491c0-73.987 10.584-84.544 84.639-84.544h75.37z" vector-effect="non-scaling-stroke"/></g><g filter="url(#c)"><path fill="#1463A5" fill-rule="evenodd" class="fil0" d="M200.5 143.324l-3.133 29.264h-75.158v-2.322l37.978-42.002-36.91-47.096v-2.301h71.162v24.891h-4.722c-.975-4.396-2.859-8.545-5.629-12.444-2.77-3.902-5.629-6.087-8.603-6.561-1.338-.226-3.224-.406-5.676-.497-2.472-.113-4.47-.18-6.038-.18h-20.543l29.6 37.785v1.06l-34.593 38.033h43.425c1.998 0 3.768-.586 5.333-1.781 1.545-1.171 2.884-2.705 3.996-4.553 1.021-1.668 1.929-3.539 2.724-5.57a179.348 179.348 0 0 0 2.112-5.726h4.675zm-88.978-76.218v7.781h-8.931c-3.265 0-6.344.306-9.234.894-2.89.612-5.709 1.717-8.459 3.315-2.538 1.529-4.606 3.597-6.205 6.23-1.597 2.657-2.42 5.856-2.42 9.617 0 5.454 1.974 9.617 5.899 12.46 3.923 2.845 9.117 4.28 15.603 4.28h9.964v7.218H94.25c-7.474 0-13.183 1.575-17.108 4.724-3.925 3.151-5.875 8.09-5.875 14.838 0 5.524 1.599 9.802 4.818 12.859 3.195 3.057 7.684 4.585 13.419 4.585h9.093c5.687 0 9.988 1.551 12.925 4.678 2.938 3.127 4.419 7.288 4.419 12.532 0 5.642-2.42 10.791-7.262 15.423-4.841 4.655-10.622 6.96-17.318 6.96-4.818 0-8.25-.588-10.248-1.741-2.02-1.174-3.029-2.891-3.029-5.149 0-1.833.563-3.291 1.666-4.396 1.129-1.104 2.798-1.67 5.006-1.67 1.293 0 2.444.26 3.479.776a13.307 13.307 0 0 1 2.702 1.717c.751.54 1.621 1.27 2.656 2.14 1.033.869 2.02 1.527 2.937 1.997 1.104-.094 2.303-.352 3.62-.798 1.29-.448 2.537-1.175 3.734-2.235 1.247-1.058 2.233-2.279 2.962-3.691.751-1.387 1.105-3.291 1.105-5.69 0-3.337-1.059-5.83-3.197-7.427-2.138-1.6-5.192-2.424-9.189-2.424H84.826c-7.896 0-14.38-2.397-19.41-7.217-5.052-4.819-7.59-10.791-7.59-17.915 0-3.856.775-7.383 2.302-10.58 1.551-3.175 3.619-5.972 6.251-8.369 2.468-2.236 5.312-4.021 8.483-5.363 3.198-1.339 6.275-2.185 9.213-2.561v-.4c-6.979-1.151-12.29-3.456-15.909-6.889-3.643-3.455-5.452-7.57-5.452-12.39 0-2.727.54-5.197 1.621-7.406 1.081-2.233 2.586-4.233 4.512-5.972 1.787-1.599 3.901-2.985 6.345-4.139a57.166 57.166 0 0 1 7.638-2.891v-1.151c-1.833.046-4.231.118-7.168.258-2.938.142-5.452.212-7.566.212-4.325 0-7.496-.612-9.54-1.834-2.047-1.199-3.056-2.939-3.056-5.196 0-1.788.47-3.339 1.409-4.633.941-1.315 2.538-1.973 4.77-1.973 2.116 0 3.925.422 5.406 1.246a34.978 34.978 0 0 1 4.182 2.679 126.619 126.619 0 0 0 3.855 2.799c1.105.752 2.772 1.127 5.028 1.127 4.936 0 10.294-.14 16.075-.421 5.757-.26 10.857-.542 15.297-.824z"/><path fill="#BC1938" fill-rule="evenodd" class="fil0" d="M176.676 163.425h-33.991v-3.822c1.24-.036 2.811-.166 4.736-.386 1.943-.202 3.276-.515 3.997-.901 1.111-.679 1.943-1.47 2.461-2.352.517-.883.796-1.984.796-3.308V97.101h-.815l-26.237 65.093h-2.721l-24.98-66.455h-.703v45.615c0 4.41.277 7.773.832 10.07.556 2.298 1.426 3.951 2.573 4.944.795.754 2.442 1.47 4.941 2.15 2.478.699 4.107 1.049 4.865 1.085v3.822H81.381v-3.822a38.82 38.82 0 0 0 5.108-.808c1.794-.386 3.182-.993 4.162-1.784 1.259-.992 2.129-2.536 2.592-4.63.481-2.077.703-5.551.703-10.44v-39.089c0-2.26-.26-4.117-.815-5.55-.537-1.433-1.314-2.591-2.331-3.491-1.111-.975-2.479-1.691-4.108-2.151a20.394 20.394 0 0 0-4.829-.809v-3.823h26.238l22 57.284 18.82-47.91a46.115 46.115 0 0 0 1.757-5.532c.499-1.912.759-3.198.795-3.842h25.092v3.823c-1.019.037-2.295.203-3.868.478-1.572.294-2.719.552-3.442.81-1.239.44-2.072 1.156-2.497 2.148-.445 1.012-.648 2.115-.648 3.29v55.079c0 1.25.203 2.316.648 3.179.425.864 1.258 1.617 2.497 2.261.649.349 1.796.699 3.461.992 1.664.313 2.978.479 3.96.515v3.822z"/></g><defs><filter id="c" width="205" height="195" x="25.5" y="34.5" filterUnits="userSpaceOnUse"><feGaussianBlur xmlns="http://www.w3.org/2000/svg" in="SourceGraphic" stdDeviation="4.294"/><feOffset xmlns="http://www.w3.org/2000/svg" dy="4" result="pf_100_offsetBlur"/><feFlood xmlns="http://www.w3.org/2000/svg" flood-opacity=".4"/><feComposite xmlns="http://www.w3.org/2000/svg" in2="pf_100_offsetBlur" operator="in" result="pf_100_dropShadow"/><feBlend xmlns="http://www.w3.org/2000/svg" in="SourceGraphic" in2="pf_100_dropShadow"/></filter></defs></svg>
